icons/monitor-receptionB.svg

<svg width="24" height="24" viewBox="0 0 24 24" fill="none" xmlns="http://www.w3.org/2000/svg">
<path d="M20.45 15.95V19.15C20.45 20.05 19.75 20.75 18.85 20.75H5.15005C4.25005 20.75 3.55005 20.05 3.55005 19.15V15.95C3.55005 15.05 4.25005 14.35 5.15005 14.35H18.85C19.75 14.35 20.45 15.05 20.45 15.95Z" fill="black"/>
<path fill-rule="evenodd" clip-rule="evenodd" d="M5.15005 15.1C4.66426 15.1 4.30005 15.4642 4.30005 15.95V19.15C4.30005 19.6358 4.66426 20 5.15005 20H18.85C19.3358 20 19.7 19.6358 19.7 19.15V15.95C19.7 15.4642 19.3358 15.1 18.85 15.1H5.15005ZM2.80005 15.95C2.80005 14.6358 3.83584 13.6 5.15005 13.6H18.85C20.1643 13.6 21.2 14.6358 21.2 15.95V19.15C21.2 20.4642 20.1643 21.5 18.85 21.5H5.15005C3.83583 21.5 2.80005 20.4642 2.80005 19.15V15.95Z" fill="black"/>
<path fill-rule="evenodd" clip-rule="evenodd" d="M11.65 10.1C11.2275 10.1 11 10.4 11 10.65V10.7033L10.7928 12.1537L10.5956 13.6H13.5044L13.3072 12.1537L13.1057 10.743C13.055 10.3375 12.7914 10.1 12.35 10.1H11.65ZM9.50087 10.5906C9.53366 9.46915 10.4928 8.59998 11.65 8.59998H12.35C13.5063 8.59998 14.4412 9.35946 14.5933 10.5499L14.7931 11.9486L15.1 14.1991V15.1H9V14.1991L9.30752 11.9439L9.50087 10.5906Z" fill="black"/>
<path fill-rule="evenodd" clip-rule="evenodd" d="M5.1001 4.45C5.1001 3.29597 6.07685 2.5 7.0501 2.5H16.9501C18.1041 2.5 18.9001 3.47675 18.9001 4.45V10.85C18.9001 12.004 17.9233 12.8 16.9501 12.8H14.0501V11.3H16.9501C17.0463 11.3 17.1651 11.257 17.2601 11.1672C17.349 11.0833 17.4001 10.9753 17.4001 10.85V4.45C17.4001 4.35383 17.3571 4.23498 17.2673 4.13997C17.1834 4.05109 17.0754 4 16.9501 4H7.0501C6.95393 4 6.83508 4.04303 6.74007 4.13276C6.65118 4.2167 6.6001 4.32472 6.6001 4.45V10.95C6.6001 11.0462 6.64313 11.165 6.73286 11.26C6.8168 11.3489 6.92481 11.4 7.0501 11.4H9.9501V12.9H7.0501C5.89607 12.9 5.1001 11.9232 5.1001 10.95V4.45Z" fill="black"/>
</svg>

<svg xmlns="http://www.w3.org/2000/svg" fill="none" viewBox="0 0 24 24">
  <path fill="#000" d="M20.45 15.95v3.2c0 .9-.7 1.6-1.6 1.6H5.15c-.9 0-1.6-.7-1.6-1.6v-3.2c0-.9.7-1.6 1.6-1.6h13.7c.9 0 1.6.7 1.6 1.6Z"/>
  <path fill="#000" fill-rule="evenodd" d="M5.15 15.1a.83.83 0 0 0-.85.85v3.2c0 .486.364.85.85.85h13.7a.83.83 0 0 0 .85-.85v-3.2a.83.83 0 0 0-.85-.85H5.15Zm-2.35.85a2.33 2.33 0 0 1 2.35-2.35h13.7a2.33 2.33 0 0 1 2.35 2.35v3.2a2.33 2.33 0 0 1-2.35 2.35H5.15a2.33 2.33 0 0 1-2.35-2.35v-3.2Z" clip-rule="evenodd"/>
  <path fill="#000" fill-rule="evenodd" d="M11.65 10.1c-.423 0-.65.3-.65.55v.053l-.207 1.45-.197 1.447h2.908l-.197-1.446-.201-1.411c-.051-.405-.315-.643-.756-.643h-.7Zm-2.15.49c.034-1.12.993-1.99 2.15-1.99h.7c1.156 0 2.091.76 2.243 1.95l.2 1.399.307 2.25v.901H9v-.9l.308-2.256.193-1.353Z" clip-rule="evenodd"/>
  <path fill="#000" fill-rule="evenodd" d="M5.1 4.45c0-1.154.977-1.95 1.95-1.95h9.9c1.154 0 1.95.977 1.95 1.95v6.4c0 1.154-.977 1.95-1.95 1.95h-2.9v-1.5h2.9a.47.47 0 0 0 .31-.133.427.427 0 0 0 .14-.317v-6.4a.47.47 0 0 0-.133-.31.427.427 0 0 0-.317-.14h-9.9a.47.47 0 0 0-.31.133.427.427 0 0 0-.14.317v6.5a.47.47 0 0 0 .133.31c.084.089.192.14.317.14h2.9v1.5h-2.9c-1.154 0-1.95-.977-1.95-1.95v-6.5Z" clip-rule="evenodd"/>
</svg>
